X: 55
M:C|
L:1/8
K:A
ue2|\
"1"a>"3"c'"1"a>"0"e c>ae>c | A>"4"ec>A E2c2 |\
 d>fB>d c>"4"eA>c | B>^AB>c B2e2 |
a>c'a>e c>ae>c | A>"4"ec>A E2c2 | d>fB>d c>"4"eA>c |\
 B>EG>B A2 H:|
|:uA2|\
 "4"e>^de>f e>d=d>B |
 "2"b>"1"a"2"g>f e>dc>B | A2 c2 A2:|


